svgs/modern_strike_online.svg

<svg width="192" height="192" viewBox="0 0 192 192" fill="none" xmlns="http://www.w3.org/2000/svg">
<path d="M80.506 114.645L91.0868 99.5492C93.4757 96.1409 98.5244 96.1409 100.913 99.5492L111.494 114.645C113.732 117.838 117.772 119.227 121.5 118.084L139.606 112.538C144.605 111.006 148.037 106.415 148.09 101.188L148.228 87.8301C148.286 82.2152 144.444 77.3438 138.902 76.4379C129.646 74.9249 114.278 73 96.0001 73C77.7218 73 62.3543 74.9249 53.0981 76.4379C47.5565 77.3438 43.7144 82.2152 43.7722 87.8301L43.9097 101.188C43.9635 106.415 47.3955 111.006 52.3941 112.538L70.4999 118.084C74.2282 119.227 78.2679 117.838 80.506 114.645Z" stroke="black" stroke-width="12"/>
<path d="M44 64C48.0498 40.1859 69.7893 22 96 22C122.211 22 143.95 40.1859 148 64" stroke="black" stroke-width="12" stroke-linecap="round"/>
<path d="M51.1987 127C62.4286 153.476 78.347 170 96 170C113.653 170 129.571 153.476 140.801 127" stroke="black" stroke-width="12" stroke-linecap="round"/>
</svg>

<svg xmlns="http://www.w3.org/2000/svg" width="192" height="192" fill="none" viewBox="0 0 192 192"><path stroke="#000" stroke-width="12" d="m80.506 114.645 10.58-15.096c2.39-3.408 7.438-3.408 9.827 0l10.581 15.096a9 9 0 0 0 10.006 3.439l18.106-5.546a12 12 0 0 0 8.484-11.35l.138-13.358c.058-5.615-3.784-10.486-9.326-11.392C129.646 74.925 114.278 73 96 73s-33.646 1.925-42.902 3.438c-5.541.906-9.384 5.777-9.326 11.392l.138 13.358a12 12 0 0 0 8.484 11.35l18.106 5.546a9 9 0 0 0 10.006-3.439Z"/><path stroke="#000" stroke-linecap="round" stroke-width="12" d="M44 64c4.05-23.814 25.79-42 52-42s47.95 18.186 52 42m-96.801 63c11.23 26.476 27.148 43 44.801 43s33.571-16.524 44.801-43"/></svg>
